X:1
T:Just Peachy
T:Tom Brier
T:Just Peachy
C:Tom Brier
%%score { ( 1 3 4 5 ) | 2 }
L:1/8
Q:1/4=90
M:2/4
K:Eb
V:1 treble nm="Piano" snm="Pno."
V:3 treble 
V:4 treble 
V:5 treble 
V:2 bass 
V:1
"^Swing""^Moderato" z/ ^f/.g/f/ |: .[GBeg].[F=Bdf] [EAce].[CEAc] | %2
 [B,EGB]/.[CEAc][EGBe]/- [EGBe]/[Ff][^F^f]/ | [Gceg][Ff] [Bdfb]/[Ag][GBe]/- | %4
 [GBe]/[dd']/[cc']/[Bdfab]/- [Bdfab]/[Ee]/[Ff]/[^F^f]/ | .[GBeg].[F=Bdf] [EAce].[CEAc] | %6
 [B,EGB]/.[CEAc][EGBe]/- [EGBe]/[Ff][^F^f]/ | [Gceg][Ff] [cec']/[dfd'][Bdb]/- | %8
 [Bdb]/[=A=a]/[Bb]/[=Bdfg=b]/- [Bdfgb]/[Gg]/[Aa]/[Bb]/ | [cegc'][cegc'] [dd']/[ee'][ceac']/- | %10
 [ceac'][ceac'] [dd']/[ee'][Begb]/- | [Begb][GBeg] f/eg/- | g/e/f/g/- g/f/e/c/ | %13
 [EAce][EAce] [FAcf][^Fc^f] | [GBeg]/[Aa]/[=A=a]/[B=egb]/- [Begb]/[cegc']b/ | %15
 [eg]2 d/g/f/[G_Be]/- |1 [GBe]/[d^f]/.[eg]/[df]/ .[eg]/[df]/.[eg]/f/ :|2 %17
 [GBe]/[B_deg][Bdeg]/- [Bdeg]/[Bdeg]e/ |: [cf]/e/[cf] [_cf]/e/[cf] | %19
 [Bf]/[Be][GB]/- [GB]/[B_deg]e/ | [cf]/e/[cf] [_cf]/e/[cf] | %21
 [Bf]/[Be][GB]/- [GB]/[B,B]/[Cc]/[^C^c]/ | [DAd]/[Ee]/[=E=e]/[FAdf]/- [FAdf]/[Ee]/[FAdf] | %23
 [EGBe]/[Ff]/[^F^f]/[GBeg]/- [GBeg]/[Ff]/[GBeg] | %24
 [F=Acf]/[Gg]/[^G^g]/[Ace=a]/- [Acea]/[dfd']/[cec']/[Bdb]/- | [Bdb]/f/[Bdb]/d/ f/[Bb]e/ | %26
 [cf]/e/[cf] [_cf]/e/[cf] | [Bf]/[Be][GB]/- [GB]/[B_deg]e/ | [cf]/e/[cf] [_cf]/e/[cf] | %29
 [Bf]/[Be][GB]/- [GB]/[B,B]/[Cc]/[^C^c]/ | [DAd]/[Ee]/[=E=e]/[FAdf]/- [FAdf]/[Ee]/[FAdf] | %31
 [EGBe]/[Ff]/[^F^f]/[GBeg]/- [GBeg]/[Ff]/[GBeg] | g/f/c/^c/ d/g/f/e/- |1 %33
 [GBe]/[B_deg][Bdeg]/- [Bdeg]/[Bdeg]e/ :|2 [GBe]/[d^f]/.[eg]/[df]/ .[eg]/[df]/.[eg]/f/ || %35
 .[GBeg].[F=Bdf] [EAce].[CEAc] | [B,EGB]/.[CEAc][EGBe]/- [EGBe]/[Ff][^F^f]/ | %37
 [Gceg][Ff]/B/- [Bdfb]/[Ag][GBe]/- | [GBe]/[dd']/[cc']/[Bdfab]/- [Bdfab]/[Ee]/[Ff]/[^F^f]/ | %39
 .[GBeg].[F=Bdf] [EAce].[CEAc] | [B,EGB]/.[CEAc][EGBe]/- [EGBe]/[Ff][^F^f]/ | %41
 [Gceg][Ff]/c/- [cec']/[dfd'][Bdb]/- | [Bdb]/[=A=a]/[Bb]/[=Bdfg=b]/- [Bdfgb]/[Gg]/[Aa]/[Bb]/ | %43
 [cc'][cc'] [dd']/[ee'][cac']/- | [cac'][cc'] [dd']/[ee'][Bb]/- | [Bb][Gg] [Ff]/[Ee][Gceg]/- | %46
 g/e/f/g/- g/f/e/c/ | [Ee][Ece] [FAf][^F=A^f]/G/- | [GBeg]/[Aa]/[=A=a]/[B=egb]/- [Begb]/[cegc']b/ | %49
 [eg]2 d/g/f/[G_Be]/- | [GBe]2 [gbe'] (3g/a/=a/ | b/c'b/ c'/b/a/f/ | b/c'b/ c'/b/a/f/ | %53
 b/c'b/ c'/b/g/f/ | e4 |:[K:Ab] z [EAce] z [E_G=Ac] | [GBde]/f[GBde]/- [GBde]2 | %57
 z [EAce] z [E_G=Ac] | [GBde]/f[GBde]/- [GBde]2 | z [F=Acef] z [FAce] | [FBd]/e[FBdf]/- [FBdf]2 | %61
 z [G=B=dfg] z [GBdf] | [Gce]/f[GBdeg]/- [GBdeg]2 | z [EAce] z [E_G=Ac] | %64
 [EGBde]/[Ff][EGBde]/- [EGBde]2 | z [_GAce] z [GAc] | [DFAd]/[Ee][DFAd]/- [DFAd]2 | %67
 [DFAd]2 [_FAd]>E- | [EAc]/d[E=Ace]/- [EAce]2 | [=DFAc]B/[EGe]/- [EGe]/B/[_Dc] |1 %70
 [CEA]f/[G=Be]/- [GBe]/f'/[g=be'] :|2 [CEA]2 [cea] (3c/d/=d/ || e/af/ e/c/B/A/ | %73
 B/c/A/B/- B/A/B/=B/ | c/ec/- c/A/B | [CEA]2 [Acea]2 |] %76
V:2
 x2 |: [E,,E,]/D,,/-[D,,D,]/C,,/- [C,,C,]/!8vb(!A,,,/-[A,,,A,,]/G,,,/- | %2
 [G,,,G,,]/A,,,/-[A,,,A,,]/G,,,/- [G,,,G,,]/E,,,/-[E,,,E,,]/F,,,/- | %3
 [F,,,F,,]!8vb)!.[F,=A,CE] [B,,,B,,].[F,_A,B,D] | [E,,E,][_G,,_G,] [F,,F,][B,,,B,,] | %5
 [E,,E,]/D,,/-[D,,D,]/C,,/- [C,,C,]/!8vb(!A,,,/-[A,,,A,,]/G,,,/- | %6
 [G,,,G,,]/A,,,/-[A,,,A,,]/G,,,/- [G,,,G,,]/E,,,/-[E,,,E,,]/F,,,/- | %7
 [F,,,F,,]!8vb)!.[F,=A,CE] [F,,F,].[F,A,CE] | [B,,,B,,].[F,A,B,D] [F,G,=B,D][G,,G,] | %9
 [C,,C,].[G,CE] [C,C][B,,B,] | [A,,A,].[E,A,C] [A,,A,].[E,A,C] | %11
 [G,,G,].[G,B,E] [=B,,,=B,,].[G,=B,F] | [C,,C,].[G,CE] [C,C][B,,B,] | %13
 [A,,A,].[E,A,C] [A,,A,][=A,,=A,] | [B,,B,][A,,A,] [G,,G,][C,,C,] | %15
 [F,,F,].[F,=A,CE] [B,,,B,,].[F,_A,B,D] |1 .[E,,E,] z z z/ E,,/ :|2 %17
!ped! [E,,E,][E,G,B,_D] [E,G,B,D][E,G,B,D]!ped-up! |: %18
 .[A,,A,].[E,A,C]/A,,/- [A,,_C].[E,A,C]/G,,/- | [G,,B,].[G,B,E] [E,,_D,].[E,G,_D]/A,,/- | %20
 [A,,E,C].[E,A,C]/A,,/- [A,,_C].[E,A,C]/G,,/- | [G,,B,].[G,B,E] [E,,E,][G,,G,]/[_G,,_G,]/ | %22
 [F,,F,].[A,B,DF] [B,,,B,,].[A,B,DF]/E,,/- | [E,,E,][D,,D,] [C,,C,].[E,G,C]/F,,/- | %24
 [F,,=A,].[F,A,CE] [F,,,F,,].[F,A,CE] | .[B,,,B,,][F,A,B,D]- [F,A,B,D]/[E,,E,][E,G,_D]/ | %26
 [A,,A,].[E,A,C]/A,,/- [A,,_C].[E,A,C]/G,,/- | [G,,B,].[G,B,E] [E,,_D,].[E,G,_D]/A,,/- | %28
 [A,,E,C].[E,A,C]/A,,/- [A,,_C].[E,A,C]/G,,/- | [G,,B,].[G,B,E] [E,,E,][G,,G,]/[_G,,_G,]/ | %30
 [F,,F,].[A,B,DF] [B,,,B,,].[A,B,DF]/E,,/- | [E,,E,][D,,D,] [C,,C,][B,,,B,,]/F,,,/- | %32
 [F,,,F,,].[F,=A,CE] [B,,,B,,].[F,_A,B,D] |1!ped! [E,,,E,,][E,G,B,_D] [E,G,B,D][E,,E,]!ped-up! :|2 %34
 .[E,,,E,,] z z z/ E,,/- || [E,,E,]/D,,/-[D,,D,]/C,,/- [C,,C,]/!8vb(!A,,,/-[A,,,A,,]/G,,,/- | %36
 [G,,,G,,]/A,,,/-[A,,,A,,]/G,,,/- [G,,,G,,]/E,,,/-[E,,,E,,]/F,,,/- | %37
 [F,,,F,,]!8vb)!.[F,=A,CE] [B,,,B,,].[F,_A,B,D] | %38
 [E,,E,][_G,,_G,]/F,,/- [F,,F,]/[B,,,B,,]/[C,,C,]/[D,,D,]/ | %39
 [E,,E,]/D,,/-[D,,D,]/C,,/- [C,,C,]/!8vb(!A,,,/-[A,,,A,,]/G,,,/- | %40
 [G,,,G,,]/A,,,/-[A,,,A,,]/G,,,/- [G,,,G,,]/E,,,/-[E,,,E,,]/F,,,/- | %41
 [F,,,F,,]!8vb)!.[F,=A,CE] [F,,F,].[F,A,CE] | %42
 [B,,,B,,].[F,A,B,D] [F,G,=B,D]/[G,,G,]/[F,,F,]/[D,,D,]/ | [C,,C,].[G,CE] [C,,C,][B,,,B,,] | %44
 [A,,,A,,].[E,A,C] [A,,,A,,].[E,A,C] | [G,,G,].[G,B,E] [=B,,,=B,,].[G,=B,D] | %46
 [C,,C,].[C,G,C] [_C,_C][B,,B,] | [A,,A,][E,,E,] [A,,,A,,][=A,,=A,]/B,,/- | %48
 [B,,B,][A,,A,]/[G,,G,]/- [G,,G,][C,,C,] | %49
 [F,,,F,,][C,,C,]/[_C,,_C,]/ [B,,,B,,]/[=C,,=C,]/[D,,D,] | [E,,E,][B,,,B,,] [E,,,E,,]2 | x4 | x4 | %53
 x4 | z [E,,B,,E,] [F,,C,F,][G,,D,G,] |:[K:Ab] [A,,A,].[E,A,C] [=A,,=A,].[E,_G,A,C] | %56
 [B,,B,]>[E,G,B,D]- [E,G,B,D]/[E,,E,]/[F,,F,]/[G,,G,]/ | [A,,A,].[E,A,C] [=A,,=A,].[E,_G,A,C] | %58
 [B,,B,]>[E,G,B,D]- [E,G,B,D]/[=D,,=D,]/[E,,E,]/[=E,,=E,]/ | [F,,F,].[F,=A,CE] [C,,C,].[F,A,CE] | %60
 [B,,,B,,]>[F,B,D]- [F,B,D]/[B,,B,]/[__B,,__B,]/[A,,A,]/ | [G,,G,].[G,=B,=DF] [=D,,=D,].[G,B,DF] | %62
 [C,,C,]>[B,,,B,,]- [B,,,B,,]/[E,,E,]/[F,,F,]/[G,,G,]/ | [A,,A,].[E,A,C] [=A,,=A,].[E,_G,A,C] | %64
 [B,,B,]>[E,G,B,D]- [E,G,B,D]/[E,,E,]/[F,,F,]/[G,,G,]/ | [A,,A,].[E,_G,A,C] [E,,E,].[E,G,A,C] | %66
 [D,,D,]>[F,A,D]- [F,A,D]/[A,,,A,,]/[B,,,B,,]/[C,,C,]/ | [D,,D,].[F,A,D] [_F,,_F,].[F,A,D] | %68
 [E,,E,]/[D,,D,][C,,C,]/- [C,,C,]/[F,,F,]/[G,,G,]/[=A,,=A,]/ | %69
 [B,,B,].[F,A,B,=D] [E,,E,].[E,G,B,_D] |1 [A,,E,A,]>[G,=B,E]- [G,B,E]/[E,,E,]/[F,,F,]/[G,,G,]/ :|2 %71
 [A,,A,][E,,E,] [A,,,A,,]>E,- || [E,C_G]4 | [D,,D,]3 [=D,,=D,] | %74
 [E,,E,][=E,,=E,]/[F,,F,]/- [F,,F,]/[^F,,^F,]/[G,,G,] | [A,,A,][E,,E,] [A,,,A,,]2 |] %76
V:3
 x2 |: x4 | x4 | x4 | x4 | x4 | x4 | x4 | x4 | x4 | x4 | x2 [G=Bd] x/ [Gce]/- | %12
 [Gce]>[Gce]- [Gce]2 | x4 | x4 | =A/=B/c/^c/ _A3/2 x/ |1 x4 :|2 x4 |: x4 | x4 | x4 | x4 | x4 | x4 | %24
 x4 | x4 | x4 | x4 | x4 | x4 | x4 | x4 | [=Ae]2 _A>[GB]- |1 x4 :|2 x4 || x4 | x4 | x4 | x4 | x4 | %40
 x4 | x4 | x4 | z/ [eg]/ z/ [eg]/ x2 | z/ a/ z/ a/ x2 | z/ [eg]/ z/ =B/ x2 | [Gce]>[Gce]- [Gce]2 | %47
 x z/ A/- x2 | x4 | =A/=B/c/^c/ _A3/2 x/ | x4 | [B,A]4 | [B,A]4 | [EGB_d]4 | [EGB_d]4 |:[K:Ab] x4 | %56
 x2 z/ f'/[gbd'e'] | x4 | x2 z/ f'/[gbd'e'] | x4 | x2 z/ f/[bd'f'] | x4 | x2 z/ g/[bd'e'g'] | x4 | %64
 x2 z/ f'/[gbd'e'] | x4 | x2 z/ d/[fad'] | x4 | x4 | x4 |1 x4 :|2 x4 || x4 | F3 _F | E>__E- ED | %75
 x4 |] %76
V:4
 x2 |: x4 | x4 | x4 | x4 | x4 | x4 | x4 | x4 | x4 | x4 | x4 | x4 | x4 | x4 | x4 |1 x15/4 x/4- :|2 %17
 x4 |: x4 | x4 | x4 | x4 | x4 | x4 | x4 | x4 | x4 | x4 | x4 | x4 | x4 | x4 | x4 |1 x15/4 x/4- :|2 %34
 x4 || x4 | x4 | x4 | x4 | x4 | x4 | x4 | x4 | x4 | x4 | x4 | x4 | x4 | x4 | x4 | x4 | x4 | x4 | %53
 x4 | x4 |:[K:Ab] x4 | x4 | x4 | x4 | x4 | x4 | x4 | x4 | x4 | x4 | x4 | x4 | x4 | x4 | x4 |1 %70
 x4 :|2 x4 || x4 | x4 | x4 | x4 |] %76
V:5
 x2 |: x4 | x4 | x4 | x4 | x4 | x4 | x4 | x4 | x4 | x4 | x4 | x4 | x4 | x4 | x4 |1 x4 :|2 x4 |: %18
 x4 | x4 | x4 | x4 | x4 | x4 | x4 | x4 | x4 | x4 | x4 | x4 | x4 | x4 | x4 |1 x4 :|2 x4 || x4 | x4 | %37
 x4 | x4 | x4 | x4 | x4 | x4 | x4 | x4 | x4 | x4 | x4 | x4 | x4 | x4 | d4 | d4 | x4 | x4 |: %55
[K:Ab] x4 | x4 | x4 | x4 | x4 | x4 | x4 | x4 | x4 | x4 | x4 | x4 | x4 | x4 | x4 |1 x4 :|2 x4 || %72
 x4 | x4 | x4 | x4 |] %76

